X:1
T:Morpeth Waltz
T:Morpeth Waltz
T:Robert Whinham
C:Robert Whinham
L:1/8
M:3/4
K:D
V:1 treble 
V:1
 [FA][FA] [FA]2 [FA]2 | [FA][FA] [FA]2 [FA]2 || AFAf d2 | AFAf d2 | Adfb a2 | Adfb a2 | gAce A2 | %7
 gAce A2 | ^cdgg g2 | Adgg g2 | AFAf d2 | AFAf d2 | Adfb a2 | Adfb a2 | gAce A2 | gAce A2 | %16
 AdaAfA | d4 z2 || d'/d'/d'/d'/ d'2 c'2 | g2 b4 | a/a/a/a/ a2 d'2 | d2 f4 | e/e/e/e/ e2 g2 | %23
 c2 e4 | dfgb a2 | d2 z2 z2 |: A6 | BA^GABA | F2 d4 | c2 B4 | B,2 B4 | A2 G4 | A,2 A4 | G2 F4 | %34
 A6 | BA^GABA | F2 d4 | c2 B4 | B,2 B4 | A2 G4 | A,2 F3 E | D4 z2 :|[M:2/4] g2 fe | a^g a z/ a/ | %44
 c'2 ba | gg g2 | g2 fe | a^g a z/ a | f2 ed | ed c || !fermata!g | g f2 g | gg/^f/ gc' | %53
 c' b2 (a | a)g/^f/ ge | g ^f2 (a | a)g/^f/ gc' | c' b2 a | ag/^f/ ge | c/B/c/e/ g/^f/a/g/ | %60
 c'/b/d'/b/ g/a/g/e/ | c/B/c/e/ g/^f/a/g/ | c'/b/d'/b/ g/a/g/e/ | d/^c/d/f/ a/^g/b/a/ | %64
 d/^c/d/f/ a/^g/b/a/ | d'/^c'/=c'/b | _b/a/^g/ag || %67

